X:1
T:Homework Rondo
C:Sophie Bartlett
M:4/4
L:1/4
Q:1/4=144
K:C
V:T clef=treble
V:B clef=bass
% Start
[V:T]      C C/D/ E E   | G/F/E/D/ D2   | C/4D/4C/4D/4 C/D/E/D/E/D/ | F A, C2        |
[V:B]      C,G,E,C,     | G,E,G,2       | G, G,3                    | [F,A,C]4       |
[V:T][K:G] C C/D/E/F/ E | E/F/ E/G/ G2  | c/B/d/c/e/d/ f            | c/B/A/G/F/E/ F |
[V:B][K:G] G,G,B,G,     | B,G,D,2       | G,G,B,D,                  | G,D,B,D,       |
[V:T][K:C] C C/D/ E E   | G/F/E/D/ D2   | C/4D/4C/4D/4 C/D/E/D/E/D/ | F A, C2        |
[V:B][K:C] C,G,E,C,     | G,E,G,2       | G, G,3                    | [F,A,C]4       |
[V:T][K:F] F A c B      | B/A/G/B/ G2   | c B A F                   | c/d/B/c/ A2    |
[V:B][K:F] F,C,A,F,     | F, C,/F,/ C,2 | A,F,F,C,                  | F,>C, A,2      |
[V:T][K:C] C C/D/ E E   | G/F/E/D/ D2   | C/4D/4C/4D/4 C/D/E/D/E/D/ | F A, C2        |
[V:B][K:C] C,G,E,C,     | G,E,G,2       | G, G,3                    | [F,A,C]4       |
[V:T]      C C/D/E/F/ E | E/F/ E/G/ G2  | c/B/d/c/e/d/ f            | c/B/A/G/F/E/ F |
[V:B]      E,G,C,E,     | C,G,E,2       | G,G,G,C,                  | G,E,C,C,       |
[V:T]      C C/D/ E E   | G/F/E/D/ D2   | C/4D/4C/4D/4 C/D/E/D/E/D/ | F A, C2        |
[V:B]      C,G,E,C,     | G,E,G,2       | G, G,3                    | [F,A,C]4       |
% Coda
[V:T]      C/4D/4C/4D/4 C/D/E/D/E/D/ | F2 A,2    | C4        ||
[V:B]      G, G,3                    | ([F,A,C]4 | [F,A,C]4) ||
